optimized/24/outline/marquee.svg

<svg viewBox="0 0 24 24" fill="none" xmlns="http://www.w3.org/2000/svg">
  <g clip-path="url(#clip0_2117_12122)">
    <path d="M7.25001 5.75C7.25001 4.23122 8.48123 3 10 3H14C15.5188 3 16.75 4.23122 16.75 5.75V18.25C16.75 19.7688 15.5188 21 14 21H10C8.48123 21 7.25001 19.7688 7.25001 18.25V5.75ZM10 4.5C9.30966 4.5 8.75001 5.05964 8.75001 5.75V18.25C8.75001 18.9404 9.30966 19.5 10 19.5H14C14.6904 19.5 15.25 18.9404 15.25 18.25V5.75C15.25 5.05964 14.6904 4.5 14 4.5H10Z" fill="#333333"/>
    <path d="M17.75 6.13743C17.75 4.94295 18.9202 4.0995 20.0534 4.47723L20.8034 4.81056C21.518 5.04876 22 5.71751 22 6.47076V17.5292C22 18.2825 21.518 18.9512 20.8034 19.1894L20.0534 19.5228C18.9202 19.9005 17.75 19.0571 17.75 17.8626V6.13743ZM19.5791 5.90026C19.4172 5.84629 19.25 5.96679 19.25 6.13743V17.8626C19.25 18.0332 19.4172 18.1537 19.5791 18.0997L20.3291 17.7664C20.4312 17.7324 20.5 17.6368 20.5 17.5292V6.47076C20.5 6.36315 20.4312 6.26762 20.3291 6.23359L19.5791 5.90026Z" fill="#333333"/>
    <path d="M6.25001 6.13743C6.25001 4.94295 5.07979 4.0995 3.94661 4.47723L3.1966 4.81056C2.482 5.04876 2 5.71751 2 6.47076V17.5292C2 18.2825 2.482 18.9512 3.1966 19.1894L3.94661 19.5228C5.07979 19.9005 6.25001 19.057 6.25001 17.8626V6.13743ZM4.42095 5.90026C4.58284 5.84629 4.75001 5.96679 4.75001 6.13743V17.8626C4.75001 18.0332 4.58284 18.1537 4.42095 18.0997L3.67094 17.7664C3.56886 17.7324 3.5 17.6368 3.5 17.5292V6.47076C3.5 6.36315 3.56886 6.26762 3.67094 6.23359L4.42095 5.90026Z" fill="#333333"/>
  </g>
  <defs>
    <clipPath id="clip0_2117_12122">
      <rect width="24" height="24" fill="white"/>
    </clipPath>
  </defs>
</svg>

<svg xmlns="http://www.w3.org/2000/svg" width="24" height="24" fill="none">
  <g fill="#333" clip-path="url(#a)">
    <path d="M7.25 5.75A2.75 2.75 0 0 1 10 3h4a2.75 2.75 0 0 1 2.75 2.75v12.5A2.75 2.75 0 0 1 14 21h-4a2.75 2.75 0 0 1-2.75-2.75V5.75ZM10 4.5c-.69 0-1.25.56-1.25 1.25v12.5c0 .69.56 1.25 1.25 1.25h4c.69 0 1.25-.56 1.25-1.25V5.75c0-.69-.56-1.25-1.25-1.25h-4ZM17.75 6.137a1.75 1.75 0 0 1 2.303-1.66l.75.334A1.75 1.75 0 0 1 22 6.47v11.058a1.75 1.75 0 0 1-1.197 1.66l-.75.334a1.75 1.75 0 0 1-2.303-1.66V6.137Zm1.83-.237a.25.25 0 0 0-.33.237v11.726c0 .17.167.29.33.237l.75-.334a.25.25 0 0 0 .17-.237V6.471a.25.25 0 0 0-.17-.237l-.75-.334ZM6.25 6.137a1.75 1.75 0 0 0-2.303-1.66l-.75.334A1.75 1.75 0 0 0 2 6.47v11.058a1.75 1.75 0 0 0 1.197 1.66l.75.334a1.75 1.75 0 0 0 2.303-1.66V6.137ZM4.421 5.9a.25.25 0 0 1 .329.237v11.726a.25.25 0 0 1-.329.237l-.75-.334a.25.25 0 0 1-.171-.237V6.471a.25.25 0 0 1 .17-.237l.751-.334Z"/>
  </g>
  <defs>
    <clipPath id="a">
      <path fill="#fff" d="M0 0h24v24H0z"/>
    </clipPath>
  </defs>
</svg>
